src/pos-icons/pot-steam.svg

<svg height="24" viewBox="0 0 24 24" width="24" xmlns="http://www.w3.org/2000/svg"><path d="m19 19c0 1.11-.89 2-2 2h-10c-1.1 0-2-.89-2-2v-7h-2v-2h18v2h-2m-11-10.5c-1.85 0-3.35 1.5-3.35 3.35s1.5 3.35 3.35 3.35h1.53c.39 0 .76.1 1.08.3h2.02c-.58-1.05-1.77-1.75-3.1-1.75h-1.53c-1 0-1.85-.98-1.85-2s.85-1.75 1.85-1.75m4.85-1c0 1-.85 1.85-1.85 1.85v1.5c1.92 0 3.5 1.35 3.89 3.15h1.53c-.3-1.83-1.46-3.35-3.07-4.12.62-.61 1-1.45 1-2.38z"/></svg>

<?xml version="1.0" encoding="UTF-8"?><!DOCTYPE svg PUBLIC "-//W3C//DTD SVG 1.1//EN" "http://www.w3.org/Graphics/SVG/1.1/DTD/svg11.dtd"><svg xmlns="http://www.w3.org/2000/svg" xmlns:xlink="http://www.w3.org/1999/xlink" version="1.1" id="mdi-pot-steam" width="24" height="24" viewBox="0 0 24 24"><path d="M19 19C19 20.11 18.11 21 17 21H7C5.9 21 5 20.11 5 19V12H3V10H21V12H19M8 1.5C6.15 1.5 4.65 3 4.65 4.85C4.65 6.7 6.15 8.2 8 8.2H9.53C9.92 8.2 10.29 8.3 10.61 8.5H12.63C12.05 7.45 10.86 6.75 9.53 6.75H8C7 6.75 6.15 5.77 6.15 4.75C6.15 3.73 7 3 8 3M12.85 2C12.85 3 12 3.85 11 3.85V5.35C12.92 5.35 14.5 6.7 14.89 8.5H16.42C16.12 6.67 14.96 5.15 13.35 4.38C13.97 3.77 14.35 2.93 14.35 2Z" /></svg>
